X:429
T:Lisnagun Jig, The
R:jig
C:Brendan Ring
D:Nomos: I Won't Be Afraid Anymore
Z:hn-jig-429
M:6/8
L:1/8
K:C
cAG ~c3 | deg ~e3 | deg edc | dcA cAG |
cAG ~c3 | deg ~e3 | deg edc |1 dcA c3 :|2 dcA cde ||
|: ~g3 edc | deg edc | deg edc | dcA cAG |
[1 ~g3 edc | deg ~e3 | deg edc | dcA cde :|
[2 cAG ~c3 | deg ~e3 | deg edc | dcA c3 ||

